src/assets/logos/git.svg

<svg width="250" height="250" viewBox="0 0 250 250" fill="none" xmlns="http://www.w3.org/2000/svg">
<path fill-rule="evenodd" clip-rule="evenodd" d="M245.285 113.863L136.131 4.71538C129.849 -1.57179 119.653 -1.57179 113.364 4.71538L90.6979 27.3816L119.45 56.1347C126.133 53.8771 133.794 55.3913 139.121 60.7184C144.472 66.0784 145.976 73.8057 143.663 80.5098L171.374 108.221C178.077 105.911 185.813 107.406 191.167 112.769C198.65 120.249 198.65 132.373 191.167 139.859C183.682 147.345 171.557 147.345 164.069 139.859C158.44 134.225 157.049 125.957 159.899 119.023L134.057 93.1801L134.054 161.187C135.879 162.092 137.601 163.296 139.121 164.811C146.604 172.291 146.604 184.415 139.121 191.907C131.635 199.39 119.505 199.39 112.031 191.907C104.548 184.415 104.548 172.291 112.031 164.811C113.879 162.964 116.019 161.568 118.301 160.63V91.9896C116.019 91.057 113.882 89.669 112.031 87.8091C106.361 82.1474 104.997 73.8276 107.902 66.8656L79.5612 38.5185L4.71734 113.358C-1.57245 119.651 -1.57245 129.847 4.71734 136.134L113.871 245.285C120.155 251.572 130.349 251.572 136.641 245.285L245.285 136.642C251.572 130.352 251.572 120.15 245.285 113.863" fill="#DE4C36"/>
</svg>

<svg width="250" height="250" fill="none" xmlns="http://www.w3.org/2000/svg"><path fill-rule="evenodd" clip-rule="evenodd" d="M245.285 113.863 136.131 4.715c-6.282-6.287-16.478-6.287-22.767 0L90.698 27.382l28.752 28.753c6.683-2.258 14.344-.744 19.671 4.583 5.351 5.36 6.855 13.088 4.542 19.792l27.711 27.711c6.703-2.31 14.439-.815 19.793 4.548 7.483 7.48 7.483 19.604 0 27.09-7.485 7.486-19.61 7.486-27.098 0-5.629-5.634-7.02-13.902-4.17-20.836L134.057 93.18l-.003 68.007a19.328 19.328 0 0 1 5.067 3.624c7.483 7.48 7.483 19.604 0 27.096-7.486 7.483-19.616 7.483-27.09 0-7.483-7.492-7.483-19.616 0-27.096a19.17 19.17 0 0 1 6.27-4.181V91.99a18.916 18.916 0 0 1-6.27-4.18c-5.67-5.663-7.034-13.982-4.129-20.944l-28.34-28.347-74.845 74.839c-6.29 6.293-6.29 16.489 0 22.776l109.154 109.151c6.284 6.287 16.478 6.287 22.77 0l108.644-108.643c6.287-6.29 6.287-16.492 0-22.779" fill="#DE4C36"/></svg>
